images/decorative/trial/rainbow.svg

<svg width="100" height="83" viewBox="0 0 100 83" fill="none" xmlns="http://www.w3.org/2000/svg">
<path d="M96.5566 43.7487C94.8465 47.8454 90.6133 48.8055 86.7723 47.6112C86.7048 47.4455 86.6389 47.279 86.5581 47.1179C86.0781 46.1638 84.3139 46.4685 84.6185 47.6468C85.4069 50.701 85.1471 53.9839 82.3663 55.9762C79.324 58.1558 75.2645 56.7512 73.1075 54.0701C72.8769 53.7839 72.593 53.7148 72.3334 53.763C72.1444 53.7518 71.9527 53.8169 71.834 53.9826C70.8325 55.3884 70.093 56.6887 68.2796 57.1391C66.3221 57.626 64.4559 56.7037 63.4991 54.9598C61.2814 50.9208 64.4829 47.3289 68.429 46.6498C69.2049 46.5158 69.2211 45.3796 68.4235 45.2588L68.2502 45.2466C64.907 42.9947 60.0711 40.0784 63.4096 35.4983C66.4821 31.2826 71.6419 33.0893 74.967 35.8512C75.7519 36.5034 76.9563 35.305 76.2284 34.5476C76.0995 34.4117 75.9569 34.2883 75.8194 34.1589C76.2431 34.2602 76.7706 34.0621 76.7864 33.5512C76.9282 28.9747 80.5427 24.7786 85.4142 25.5213C90.2075 26.2522 92.1179 31.3166 89.6939 35.1293C89.2965 35.258 89.107 35.6014 89.1258 35.9566C88.5715 37.0153 90.1491 38.0496 91.023 37.0725L91.0778 37.0026C92.2898 37.1733 93.5222 37.3183 94.6454 37.7945C97.151 38.8561 97.522 41.4348 96.5566 43.7487ZM44.0062 28.534C36.5366 31.5588 32.333 39.7741 34.4351 47.5094C32.5527 47.3478 30.6103 47.651 28.8163 48.3753C26.8491 38.204 29.4296 27.7977 39.4177 22.9367C49.0662 18.2398 60.4646 22.1129 65.909 31.1942C64.2865 31.5999 62.7902 32.5 61.6295 34.0362C58.6945 27.7304 50.39 25.9491 44.0062 28.534ZM39.9543 53.2501C43.3193 57.9896 39.6364 63.6375 34.3876 63.3305C34.1552 63.1251 33.9087 62.9315 33.6368 62.7629C32.8146 62.2532 31.5922 63.2572 32.3638 64.0771C34.4605 66.3053 35.4375 69.9066 32.9693 72.3247C30.3258 74.9135 25.8522 73.5331 23.9905 70.7134C23.8688 70.5296 23.6811 70.5302 23.5395 70.6218C23.161 70.4213 22.6631 70.4944 22.4726 71.0032C20.8886 75.2179 19.4003 79.9867 13.7926 79.8787C6.17949 79.7309 10.1642 70.5164 11.8029 66.6901C12.354 66.116 11.6844 65.2433 10.9365 65.4702C8.53787 66.1996 2.62701 68.7286 2.20773 64.1234C1.84272 60.127 6.43312 59.0353 9.57614 59.0706C9.72672 59.1659 9.87175 59.2682 10.0342 59.3489C10.831 59.7473 11.6974 58.5981 11.0828 57.9422C7.97021 54.6184 8.9823 50.9267 13.3098 49.2022C17.2734 47.6227 22.4519 48.7172 22.8283 53.718C22.8945 54.5943 24.2265 54.5578 24.3384 53.7165C24.352 53.6097 24.3577 53.5091 24.3668 53.4052C24.6429 53.5233 24.9662 53.5176 25.2503 53.2808C29.5628 49.6776 36.1007 47.8202 39.9543 53.2501ZM15.8674 22.8675C19.8653 14.4469 27.023 8.01407 35.7152 4.73329C53.534 -1.99074 73.3436 6.62617 81.4607 23.7019C78.7147 24.7159 76.6512 27.15 75.766 30.1227C71.7203 15.8847 56.2324 6.96578 41.7688 10.6388C28.2952 14.0603 11.1133 32.2265 20.6545 46.7469C21.212 47.5948 22.5468 46.7528 22.1607 45.8522C15.9339 31.3439 29.7018 15.6695 43.4776 12.8078C57.0701 9.9839 70.9323 19.1468 73.9006 32.69C72.2796 31.6922 70.4204 31.0662 68.5819 30.9564C68.5626 30.8103 68.5147 30.6571 68.4221 30.4972C62.4671 20.2756 50.0971 15.5836 39.1273 20.5411C28.8675 25.1783 22.5574 38.0978 27.6236 48.7758L27.704 48.8846C26.4376 49.5499 25.2765 50.443 24.308 51.5575C23.4606 46.6975 17.1296 45.3889 12.7147 47.0284C12.2624 38.5042 12.0988 30.8056 15.8674 22.8675ZM92.352 35.0179C94.3522 30.5846 91.8973 25.007 86.9501 23.576C85.9692 23.292 85.0227 23.1763 84.1195 23.1984C84.097 23.1117 84.0671 23.0234 84.024 22.933C75.3815 4.709 54.5037 -4.45131 35.4206 2.29191C26.258 5.52936 18.6292 12.1612 14.1838 20.8136C10.2033 28.5616 8.01417 39.1963 11.2685 47.5833L11.3212 47.6695C8.99779 48.914 7.06583 50.8167 6.92471 53.6117C6.84911 55.1048 7.27506 56.587 8.13512 57.7429C4.03425 57.7978 -0.530977 59.7251 0.255162 64.6711C0.922243 68.8623 5.17342 69.3965 8.64958 68.3241C5.81461 72.9249 6.02492 80.577 11.8161 82.0614C17.0539 83.4052 24.1645 78.2798 24.1494 72.6425C26.3147 75.7661 31.1063 76.6426 34.1442 74.0456C36.5223 72.0126 37.164 68.1464 35.8425 65.3061C41.2919 65.446 45.3097 58.4685 42.8969 53.3076C41.4899 50.2996 39.0003 48.4992 36.203 47.7996C35.2274 41.6533 36.7358 35.4979 42.2074 31.8802C48.1608 27.9436 58.2414 28.9358 60.0899 36.9932C60.1079 37.0713 60.1342 37.1421 60.1633 37.2107C59.5016 40.7347 62.0901 43.8149 65.492 45.4892C61.318 46.8349 59.2322 52.4377 61.9226 56.3486C63.4031 58.501 65.9761 59.5693 68.5208 58.9399C70.0324 58.5661 71.7255 57.5301 72.4838 56.0817C75.0108 58.9565 79.402 59.9191 82.8535 58.0928C85.8624 56.5012 87.6855 52.814 87.2554 49.4361C91.8413 51.2243 97.2482 48.6309 98.9034 43.819C100.7 38.5992 96.9031 35.4019 92.352 35.0179Z" fill="#FEB9CC"/>
</svg>

<svg width="100" height="83" fill="none" xmlns="http://www.w3.org/2000/svg"><path d="M96.557 43.749c-1.71 4.096-5.944 5.056-9.785 3.862-.067-.165-.133-.332-.214-.493-.48-.954-2.244-.65-1.94.529.789 3.054.53 6.337-2.252 8.33-3.042 2.179-7.102.774-9.258-1.907-.231-.286-.515-.355-.775-.307a.557.557 0 0 0-.499.22c-1.002 1.405-1.741 2.706-3.554 3.156-1.958.487-3.824-.435-4.78-2.18-2.219-4.038.983-7.63 4.929-8.31.776-.133.792-1.27-.005-1.39l-.174-.012c-3.343-2.252-8.179-5.169-4.84-9.749 3.072-4.215 8.232-2.409 11.557.353.785.652 1.99-.546 1.261-1.303-.128-.136-.271-.26-.409-.39.424.102.952-.096.967-.607.142-4.576 3.757-8.772 8.628-8.03 4.793.731 6.704 5.796 4.28 9.608a.8.8 0 0 0-.568.828c-.555 1.058 1.023 2.093 1.897 1.115l.055-.07c1.212.171 2.444.316 3.567.792 2.506 1.062 2.877 3.64 1.912 5.955Zm-52.55-15.215c-7.47 3.025-11.674 11.24-9.572 18.975a12.285 12.285 0 0 0-5.619.866c-1.967-10.171.614-20.577 10.602-25.438 9.648-4.697 21.047-.824 26.491 8.257-1.623.406-3.119 1.306-4.28 2.842-2.934-6.306-11.239-8.087-17.623-5.502ZM39.953 53.25c3.365 4.74-.318 10.388-5.566 10.08a5.563 5.563 0 0 0-.751-.567c-.822-.51-2.045.494-1.273 1.314 2.097 2.228 3.074 5.83.605 8.248-2.643 2.588-7.117 1.208-8.979-1.612-.121-.183-.309-.183-.45-.091-.379-.2-.877-.128-1.067.381-1.584 4.215-3.073 8.984-8.68 8.876-7.614-.148-3.629-9.363-1.99-13.189.551-.574-.119-1.447-.867-1.22-2.398.73-8.309 3.259-8.728-1.347-.365-3.996 4.225-5.088 7.368-5.052.15.095.296.197.458.278.797.398 1.663-.75 1.049-1.407-3.113-3.324-2.1-7.015 2.227-8.74 3.963-1.58 9.142-.485 9.518 4.516.067.876 1.399.84 1.51-.002.014-.106.02-.207.029-.31.276.117.6.112.883-.125 4.313-3.603 10.85-5.46 14.704-.03ZM15.867 22.867c3.998-8.42 11.156-14.853 19.848-18.134C53.534-1.99 73.344 6.626 81.461 23.702c-2.746 1.014-4.81 3.448-5.695 6.42C71.72 15.886 56.232 6.967 41.769 10.64 28.295 14.06 11.113 32.227 20.655 46.747c.557.848 1.892.006 1.506-.895-6.227-14.508 7.54-30.182 21.317-33.044C57.07 9.984 70.932 19.147 73.9 32.69c-1.621-.998-3.48-1.624-5.32-1.734-.018-.146-.066-.299-.159-.459-5.955-10.221-18.325-14.913-29.295-9.956-10.26 4.637-16.57 17.557-11.503 28.235l.08.109a11.689 11.689 0 0 0-3.396 2.672c-.847-4.86-7.178-6.168-11.593-4.529-.453-8.524-.616-16.222 3.152-24.16Zm76.485 12.15c2-4.432-.455-10.01-5.402-11.441a9.32 9.32 0 0 0-2.83-.378 1.465 1.465 0 0 0-.096-.265C75.382 4.709 54.504-4.451 35.421 2.292c-9.163 3.237-16.792 9.87-21.237 18.522-3.98 7.748-6.17 18.382-2.915 26.77l.052.085c-2.323 1.245-4.255 3.148-4.396 5.943-.076 1.493.35 2.975 1.21 4.13-4.1.056-8.666 1.983-7.88 6.93.667 4.19 4.918 4.725 8.395 3.652-2.835 4.6-2.625 12.253 3.166 13.737 5.238 1.344 12.348-3.781 12.333-9.419 2.166 3.124 6.957 4 9.995 1.404 2.378-2.033 3.02-5.9 1.699-8.74 5.449.14 9.467-6.837 7.054-11.998C41.49 50.3 39 48.499 36.203 47.8c-.976-6.147.533-12.302 6.004-15.92 5.954-3.936 16.034-2.944 17.883 5.113.018.078.044.15.073.218-.661 3.524 1.927 6.604 5.329 8.278-4.174 1.346-6.26 6.949-3.57 10.86 1.481 2.152 4.054 3.22 6.599 2.59 1.511-.373 3.204-1.409 3.963-2.857 2.527 2.874 6.918 3.837 10.37 2.01 3.008-1.59 4.832-5.278 4.401-8.656 4.586 1.788 9.993-.805 11.648-5.617 1.797-5.22-2-8.417-6.551-8.801Z" fill="#FEB9CC"/></svg>
